assets/img/braze_icons/download-cloud-02.svg

<svg fill="none" height="24" viewBox="0 0 24 24" width="24" xmlns="http://www.w3.org/2000/svg"><path clip-rule="evenodd" d="m0 12c0 4.9706 4.02944 9 9 9h7.5c4.1421 0 7.5-3.3579 7.5-7.5 0-4.14214-3.3579-7.5-7.5-7.5-.2559 0-.5087.01281-.758.03783-1.6489-1.86319-4.0583-3.03783-6.742-3.03783-4.97056 0-9 4.02944-9 9zm12-4c.5523 0 1 .44772 1 1v5.5858l2.2929-2.2929c.3905-.3905 1.0237-.3905 1.4142 0s.3905 1.0237 0 1.4142l-4 4c-.3905.3905-1.0237.3905-1.4142 0l-4.00001-4c-.39052-.3905-.39052-1.0237 0-1.4142.39053-.3905 1.02369-.3905 1.41422 0l2.29289 2.2929v-5.5858c0-.55228.4477-1 1-1z" fill="#801ed7" fill-rule="evenodd"/></svg>

<svg width="24" height="24" viewBox="0 0 24 24" fill="none" xmlns="http://www.w3.org/2000/svg">
<path fill-rule="evenodd" clip-rule="evenodd" d="M0 12C0 16.9706 4.02944 21 9 21H16.5C20.6421 21 24 17.6421 24 13.5C24 9.35786 20.6421 6 16.5 6C16.2441 6 15.9913 6.01281 15.742 6.03783C14.0931 4.17464 11.6837 3 9 3C4.02944 3 0 7.02944 0 12ZM12 8C12.5523 8 13 8.44772 13 9V14.5858L15.2929 12.2929C15.6834 11.9024 16.3166 11.9024 16.7071 12.2929C17.0976 12.6834 17.0976 13.3166 16.7071 13.7071L12.7071 17.7071C12.3166 18.0976 11.6834 18.0976 11.2929 17.7071L7.29289 13.7071C6.90237 13.3166 6.90237 12.6834 7.29289 12.2929C7.68342 11.9024 8.31658 11.9024 8.70711 12.2929L11 14.5858V9C11 8.44772 11.4477 8 12 8Z" fill="#801ED7"/>
</svg>
